html/dist/img/svg/facebook.svg

<svg width="102" height="103" viewBox="0 0 102 103" fill="none" xmlns="http://www.w3.org/2000/svg">
<path d="M60.8305 38.6669L57.0769 38.6686C54.1339 38.6686 53.5641 40.1213 53.5641 42.2531V46.9535H60.5831L60.5806 54.316H53.5641V73.2087H46.2431V54.316H40.1226V46.9535H46.2431V41.5244C46.2431 35.2232 49.949 31.7921 55.3609 31.7921L60.8309 31.8011L60.8305 38.6669Z" fill="#FF4978"/>
</svg>

<svg width="102" height="103" viewBox="0 0 102 103" fill="none" xmlns="http://www.w3.org/2000/svg"><path d="M60.83 38.667l-3.753.002c-2.943 0-3.513 1.452-3.513 3.584v4.7h7.02l-.003 7.363h-7.017v18.893h-7.32V54.316h-6.121v-7.363h6.12v-5.429c0-6.3 3.706-9.732 9.118-9.732l5.47.01v6.865z" fill="#FF4978"/></svg>
